svg/gridicons-next-page.svg

<?xml version="1.0" encoding="iso-8859-1"?>
<!-- Generator: Adobe Illustrator 21.0.0, SVG Export Plug-In . SVG Version: 6.00 Build 0)  -->
<svg version="1.1" xmlns="http://www.w3.org/2000/svg" xmlns:xlink="http://www.w3.org/1999/xlink" x="0px" y="0px"
	 viewBox="0 0 24 24" style="enable-background:new 0 0 24 24;" xml:space="preserve">
<g id="next-page">
	<path d="M18,8h-8V6h8V8z M22,4v8l-6,6H8c-1.105,0-2-0.895-2-2V4c0-1.105,0.895-2,2-2h12C21.105,2,22,2.895,22,4z M20,4H8v12h6v-4
		c0-1.105,0.895-2,2-2h4V4z M4,6C2.895,6,2,6.895,2,8v12c0,1.1,0.9,2,2,2h12c1.105,0,2-0.895,2-2H4V6z"/>
</g>
<g id="Layer_1">
</g>
</svg>

<svg xmlns="http://www.w3.org/2000/svg" viewBox="0 0 24 24"><title>1Artboard 1</title><g id="Artwork"><path d="M18,8H10V6h8Zm4-4v8l-6,6H8a2,2,0,0,1-2-2V4A2,2,0,0,1,8,2H20A2,2,0,0,1,22,4ZM20,4H8V16h6V12a2,2,0,0,1,2-2h4ZM4,6A2,2,0,0,0,2,8V20a2,2,0,0,0,2,2H16a2,2,0,0,0,2-2H4Z"/></g></svg>
